X: 37400
T: Sleepy Maggie
R: reel
M: 4/4
K: Bdorian
|:fB B/B/B fBce|fB B/B/B eAce|fB B/B/B fBce|fgaf eAce:|
|:f2 f/a/b fBce|f2 f/g/a eAce|f2 f/a/b fBce|fgaf eAce:|
|:fB B/B/B bB B/B/B|aB B/B/B eAce|fBbB aBgB|fgaf eAce:|

